components/brave_wallet_ui/page/screens/swap/assets/lp-icons/uniswap.svg

<svg xmlns="http://www.w3.org/2000/svg" width="641" height="640" fill="none"><path fill="#FF007A" d="M224.534 123.226c-5.842-.906-6.089-1.013-3.339-1.435 5.269-.811 17.71.294 26.284 2.332 20.015 4.758 38.228 16.946 57.669 38.591l5.165 5.751 7.388-1.188c31.127-5.002 62.792-1.027 89.277 11.208 7.286 3.366 18.774 10.067 20.209 11.789.458.548 1.298 4.081 1.866 7.85 1.967 13.04.983 23.036-3.006 30.501-2.17 4.063-2.291 5.35-.832 8.827 1.165 2.775 4.412 4.828 7.628 4.824 6.582-.009 13.666-10.649 16.948-25.453l1.304-5.88 2.583 2.925c14.168 16.052 25.296 37.943 27.207 53.525l.498 4.062-2.381-3.693c-4.099-6.355-8.217-10.682-13.49-14.171-9.506-6.29-19.557-8.43-46.175-9.833-24.041-1.267-37.647-3.32-51.139-7.72-22.954-7.484-34.526-17.451-61.793-53.226-12.111-15.889-19.597-24.681-27.043-31.761-16.92-16.087-33.546-24.524-54.828-27.825Z"/><path fill="#FF007A" d="M432.61 158.704c.605-10.647 2.049-17.671 4.952-24.084 1.149-2.539 2.226-4.617 2.392-4.617.166 0-.333 1.874-1.11 4.164-2.111 6.225-2.457 14.738-1.004 24.644 1.846 12.568 2.895 14.381 16.179 27.958 6.231 6.368 13.478 14.399 16.105 17.847l4.777 6.27-4.777-4.481c-5.842-5.479-19.277-16.165-22.245-17.693-1.989-1.024-2.285-1.007-3.513.215-1.131 1.126-1.369 2.817-1.526 10.814-.244 12.463-1.943 20.463-6.043 28.462-2.217 4.326-2.567 3.403-.56-1.48 1.498-3.646 1.65-5.249 1.639-17.315-.023-24.241-2.901-30.069-19.779-40.053-4.276-2.529-11.321-6.177-15.655-8.106-4.335-1.929-7.778-3.61-7.653-3.735.478-.476 16.938 4.328 23.563 6.876 9.854 3.791 11.481 4.282 12.678 3.825.802-.306 1.19-2.643 1.58-9.511Zm-196.727 41.471c-11.861-16.329-19.199-41.366-17.611-60.082l.492-5.792 2.699.493c5.071.925 13.812 4.179 17.906 6.665 11.233 6.822 16.096 15.804 21.044 38.869 1.449 6.755 3.35 14.4 4.225 16.989 1.409 4.166 6.731 13.897 11.058 20.217 3.117 4.551 1.047 6.708-5.843 6.086-10.522-.95-24.775-10.786-33.97-23.445Zm182.34 121.532c-55.43-22.318-74.952-41.69-74.952-74.376 0-4.81.166-8.746.367-8.746.202 0 2.347 1.588 4.766 3.528 11.24 9.015 23.827 12.866 58.672 17.949 20.504 2.992 32.043 5.408 42.687 8.938 33.832 11.22 54.764 33.99 59.755 65.004 1.451 9.012.6 25.911-1.752 34.818-1.856 7.035-7.521 19.715-9.024 20.201-.417.135-.825-1.461-.932-3.634-.57-11.645-6.455-22.983-16.338-31.476-11.237-9.656-26.335-17.344-63.249-32.206Zm-38.913 9.271c-.695-4.132-1.899-9.41-2.677-11.728l-1.414-4.214 2.627 2.949c3.635 4.08 6.508 9.302 8.943 16.256 1.858 5.308 2.067 6.886 2.053 15.512-.014 8.468-.246 10.243-1.962 15.02-2.706 7.534-6.064 12.876-11.699 18.61-10.125 10.305-23.143 16.01-41.928 18.377-3.266.411-12.783 1.104-21.15 1.539-21.087 1.096-34.965 3.362-47.435 7.741-1.793.63-3.394 1.012-3.556.85-.505-.502 7.986-5.564 14.999-8.942 9.888-4.763 19.731-7.362 41.786-11.035 10.895-1.815 22.146-4.016 25.003-4.892 26.98-8.272 40.848-29.619 36.41-56.043Z"/><path fill="#FF007A" d="M404.719 376.105c-7.364-15.832-9.055-31.117-5.021-45.373.432-1.523 1.126-2.77 1.544-2.77.417 0 2.155.94 3.861 2.088 3.394 2.285 10.2 6.132 28.334 16.019 22.628 12.337 35.529 21.89 44.303 32.804 7.683 9.559 12.438 20.445 14.727 33.72 1.295 7.52.536 25.613-1.393 33.185-6.084 23.875-20.224 42.628-40.392 53.571-2.955 1.603-5.607 2.92-5.894 2.926-.287.005.789-2.732 2.392-6.084 6.785-14.182 7.557-27.977 2.428-43.332-3.141-9.402-9.544-20.874-22.473-40.263-15.032-22.542-18.718-28.542-22.416-36.491Zm-208.2 85.42c20.57-17.368 46.163-29.706 69.477-33.493 10.047-1.633 26.784-.985 36.088 1.396 14.914 3.817 28.254 12.365 35.192 22.55 6.781 9.954 9.69 18.628 12.719 37.928 1.194 7.613 2.494 15.258 2.887 16.989 2.274 10.002 6.701 17.997 12.185 22.012 8.712 6.376 23.713 6.773 38.469 1.017 2.505-.977 4.679-1.653 4.832-1.5.535.531-6.895 5.506-12.138 8.124-7.053 3.523-12.662 4.886-20.115 4.886-13.515 0-24.736-6.876-34.099-20.895-1.842-2.759-5.984-11.023-9.203-18.363-9.885-22.548-14.767-29.417-26.245-36.934-9.989-6.541-22.871-7.712-32.562-2.96-12.73 6.241-16.282 22.509-7.164 32.819 3.623 4.097 10.381 7.631 15.907 8.318 10.337 1.286 19.221-6.578 19.221-17.015 0-6.777-2.605-10.644-9.162-13.603-8.956-4.041-18.582.682-18.536 9.096.02 3.587 1.582 5.84 5.178 7.467 2.307 1.044 2.361 1.127.479.736-8.217-1.704-10.142-11.61-3.535-18.187 7.932-7.895 24.335-4.411 29.968 6.366 2.366 4.526 2.641 13.541.578 18.985-4.618 12.184-18.081 18.591-31.739 15.104-9.298-2.374-13.084-4.944-24.295-16.492-19.481-20.067-27.044-23.956-55.129-28.34l-5.382-.84 6.124-5.171Z"/><path fill="#FF007A" fill-rule="evenodd" d="M49.62 12.003c65.058 78.96 165.357 201.898 170.337 208.781 4.111 5.683 2.564 10.792-4.479 14.796-3.917 2.227-11.97 4.483-16.002 4.483-4.56 0-9.697-2.196-13.438-5.745-2.645-2.508-13.317-18.444-37.954-56.672-18.851-29.25-34.627-53.515-35.057-53.921-.995-.94-.978-.908 33.135 60.129 21.42 38.327 28.651 51.877 28.651 53.689 0 3.686-1.005 5.623-5.552 10.695-7.58 8.456-10.968 17.957-13.414 37.621-2.743 22.043-10.453 37.614-31.821 64.263-12.508 15.6-14.555 18.459-17.711 24.747-3.976 7.917-5.069 12.352-5.512 22.35-.468 10.571.444 17.4 3.674 27.507 2.827 8.849 5.778 14.691 13.323 26.378 6.511 10.084 10.261 17.579 10.261 20.51 0 2.333.445 2.336 10.535.058 24.145-5.453 43.752-15.043 54.779-26.795 6.824-7.274 8.426-11.291 8.478-21.259.034-6.52-.195-7.885-1.957-11.636-2.869-6.105-8.092-11.181-19.604-19.05-15.083-10.311-21.525-18.612-23.305-30.028-1.46-9.367.234-15.976 8.578-33.464 8.637-18.102 10.777-25.816 12.225-44.062.935-11.789 2.23-16.438 5.617-20.169 3.532-3.892 6.712-5.209 15.454-6.404 14.252-1.947 23.327-5.634 30.787-12.508 6.471-5.963 9.179-11.709 9.595-20.359l.315-6.556-3.616-4.216C222.846 199.896 40.85 0 40.044 0c-.172 0 4.137 5.402 9.576 12.003Zm85.792 397.177c2.961-5.243 1.388-11.985-3.565-15.278-4.68-3.112-11.95-1.646-11.95 2.409 0 1.237.685 2.138 2.227 2.932 2.596 1.336 2.785 2.838.742 5.909-2.069 3.11-1.902 5.844.471 7.702 3.825 2.995 9.239 1.348 12.075-3.674Zm113.14-146.936c-6.69 2.055-13.194 9.146-15.208 16.582-1.228 4.536-.531 12.493 1.309 14.95 2.972 3.969 5.846 5.015 13.629 4.96 15.236-.106 28.482-6.641 30.022-14.811 1.263-6.696-4.555-15.977-12.568-20.051-4.135-2.102-12.929-2.936-17.184-1.63Zm17.812 13.928c2.35-3.338 1.322-6.947-2.674-9.387-7.61-4.647-19.119-.802-19.119 6.388 0 3.579 6.001 7.483 11.503 7.483 3.661 0 8.672-2.183 10.29-4.484Z" clip-rule="evenodd"/></svg>

<svg width="641" height="640" viewBox="0 0 641 640" fill="none" xmlns="http://www.w3.org/2000/svg">
<path d="M224.534 123.226C218.692 122.32 218.445 122.213 221.195 121.791C226.464 120.98 238.905 122.085 247.479 124.123C267.494 128.881 285.707 141.069 305.148 162.714L310.313 168.465L317.701 167.277C348.828 162.275 380.493 166.25 406.978 178.485C414.264 181.851 425.752 188.552 427.187 190.274C427.645 190.822 428.485 194.355 429.053 198.124C431.02 211.164 430.036 221.16 426.047 228.625C423.877 232.688 423.756 233.975 425.215 237.452C426.38 240.227 429.627 242.28 432.843 242.276C439.425 242.267 446.509 231.627 449.791 216.823L451.095 210.943L453.678 213.868C467.846 229.92 478.974 251.811 480.885 267.393L481.383 271.455L479.002 267.762C474.903 261.407 470.785 257.08 465.512 253.591C456.006 247.301 445.955 245.161 419.337 243.758C395.296 242.491 381.69 240.438 368.198 236.038C345.244 228.554 333.672 218.587 306.405 182.812C294.294 166.923 286.808 158.131 279.362 151.051C262.442 134.964 245.816 126.527 224.534 123.226Z" fill="#FF007A"/>
<path d="M432.61 158.704C433.215 148.057 434.659 141.033 437.562 134.62C438.711 132.081 439.788 130.003 439.954 130.003C440.12 130.003 439.621 131.877 438.844 134.167C436.733 140.392 436.387 148.905 437.84 158.811C439.686 171.379 440.735 173.192 454.019 186.769C460.25 193.137 467.497 201.168 470.124 204.616L474.901 210.886L470.124 206.405C464.282 200.926 450.847 190.24 447.879 188.712C445.89 187.688 445.594 187.705 444.366 188.927C443.235 190.053 442.997 191.744 442.84 199.741C442.596 212.204 440.897 220.204 436.797 228.203C434.58 232.529 434.23 231.606 436.237 226.723C437.735 223.077 437.887 221.474 437.876 209.408C437.853 185.167 434.975 179.339 418.097 169.355C413.821 166.826 406.776 163.178 402.442 161.249C398.107 159.32 394.664 157.639 394.789 157.514C395.267 157.038 411.727 161.842 418.352 164.39C428.206 168.181 429.833 168.672 431.03 168.215C431.832 167.909 432.22 165.572 432.61 158.704Z" fill="#FF007A"/>
<path d="M235.883 200.175C224.022 183.846 216.684 158.809 218.272 140.093L218.764 134.301L221.463 134.794C226.534 135.719 235.275 138.973 239.369 141.459C250.602 148.281 255.465 157.263 260.413 180.328C261.862 187.083 263.763 194.728 264.638 197.317C266.047 201.483 271.369 211.214 275.696 217.534C278.813 222.085 276.743 224.242 269.853 223.62C259.331 222.67 245.078 212.834 235.883 200.175Z" fill="#FF007A"/>
<path d="M418.223 321.707C362.793 299.389 343.271 280.017 343.271 247.331C343.271 242.521 343.437 238.585 343.638 238.585C343.84 238.585 345.985 240.173 348.404 242.113C359.644 251.128 372.231 254.979 407.076 260.062C427.58 263.054 439.119 265.47 449.763 269C483.595 280.22 504.527 302.99 509.518 334.004C510.969 343.016 510.118 359.915 507.766 368.822C505.91 375.857 500.245 388.537 498.742 389.023C498.325 389.158 497.917 387.562 497.81 385.389C497.24 373.744 491.355 362.406 481.472 353.913C470.235 344.257 455.137 336.569 418.223 321.707Z" fill="#FF007A"/>
<path d="M379.31 330.978C378.615 326.846 377.411 321.568 376.633 319.25L375.219 315.036L377.846 317.985C381.481 322.065 384.354 327.287 386.789 334.241C388.647 339.549 388.856 341.127 388.842 349.753C388.828 358.221 388.596 359.996 386.88 364.773C384.174 372.307 380.816 377.649 375.181 383.383C365.056 393.688 352.038 399.393 333.253 401.76C329.987 402.171 320.47 402.864 312.103 403.299C291.016 404.395 277.138 406.661 264.668 411.04C262.875 411.67 261.274 412.052 261.112 411.89C260.607 411.388 269.098 406.326 276.111 402.948C285.999 398.185 295.842 395.586 317.897 391.913C328.792 390.098 340.043 387.897 342.9 387.021C369.88 378.749 383.748 357.402 379.31 330.978Z" fill="#FF007A"/>
<path d="M404.719 376.105C397.355 360.273 395.664 344.988 399.698 330.732C400.13 329.209 400.824 327.962 401.242 327.962C401.659 327.962 403.397 328.902 405.103 330.05C408.497 332.335 415.303 336.182 433.437 346.069C456.065 358.406 468.966 367.959 477.74 378.873C485.423 388.432 490.178 399.318 492.467 412.593C493.762 420.113 493.003 438.206 491.074 445.778C484.99 469.653 470.85 488.406 450.682 499.349C447.727 500.952 445.075 502.269 444.788 502.275C444.501 502.28 445.577 499.543 447.18 496.191C453.965 482.009 454.737 468.214 449.608 452.859C446.467 443.457 440.064 431.985 427.135 412.596C412.103 390.054 408.417 384.054 404.719 376.105Z" fill="#FF007A"/>
<path d="M196.519 461.525C217.089 444.157 242.682 431.819 265.996 428.032C276.043 426.399 292.78 427.047 302.084 429.428C316.998 433.245 330.338 441.793 337.276 451.978C344.057 461.932 346.966 470.606 349.995 489.906C351.189 497.519 352.489 505.164 352.882 506.895C355.156 516.897 359.583 524.892 365.067 528.907C373.779 535.283 388.78 535.68 403.536 529.924C406.041 528.947 408.215 528.271 408.368 528.424C408.903 528.955 401.473 533.93 396.23 536.548C389.177 540.071 383.568 541.434 376.115 541.434C362.6 541.434 351.379 534.558 342.016 520.539C340.174 517.78 336.032 509.516 332.813 502.176C322.928 479.628 318.046 472.759 306.568 465.242C296.579 458.701 283.697 457.53 274.006 462.282C261.276 468.523 257.724 484.791 266.842 495.101C270.465 499.198 277.223 502.732 282.749 503.419C293.086 504.705 301.97 496.841 301.97 486.404C301.97 479.627 299.365 475.76 292.808 472.801C283.852 468.76 274.226 473.483 274.272 481.897C274.292 485.484 275.854 487.737 279.45 489.364C281.757 490.408 281.811 490.491 279.929 490.1C271.712 488.396 269.787 478.49 276.394 471.913C284.326 464.018 300.729 467.502 306.362 478.279C308.728 482.805 309.003 491.82 306.94 497.264C302.322 509.448 288.859 515.855 275.201 512.368C265.903 509.994 262.117 507.424 250.906 495.876C231.425 475.809 223.862 471.92 195.777 467.536L190.395 466.696L196.519 461.525Z" fill="#FF007A"/>
<path fill-rule="evenodd" clip-rule="evenodd" d="M49.6202 12.0031C114.678 90.9638 214.977 213.901 219.957 220.784C224.068 226.467 222.521 231.576 215.478 235.58C211.561 237.807 203.508 240.063 199.476 240.063C194.916 240.063 189.779 237.867 186.038 234.318C183.393 231.81 172.721 215.874 148.084 177.646C129.233 148.396 113.457 124.131 113.027 123.725C112.032 122.785 112.049 122.817 146.162 183.854C167.582 222.181 174.813 235.731 174.813 237.543C174.813 241.229 173.808 243.166 169.261 248.238C161.681 256.694 158.293 266.195 155.847 285.859C153.104 307.902 145.394 323.473 124.026 350.122C111.518 365.722 109.471 368.581 106.315 374.869C102.339 382.786 101.246 387.221 100.803 397.219C100.335 407.79 101.247 414.619 104.477 424.726C107.304 433.575 110.255 439.417 117.8 451.104C124.311 461.188 128.061 468.683 128.061 471.614C128.061 473.947 128.506 473.95 138.596 471.672C162.741 466.219 182.348 456.629 193.375 444.877C200.199 437.603 201.801 433.586 201.853 423.618C201.887 417.098 201.658 415.733 199.896 411.982C197.027 405.877 191.804 400.801 180.292 392.932C165.209 382.621 158.767 374.32 156.987 362.904C155.527 353.537 157.221 346.928 165.565 329.44C174.202 311.338 176.342 303.624 177.79 285.378C178.725 273.589 180.02 268.94 183.407 265.209C186.939 261.317 190.119 260 198.861 258.805C213.113 256.858 222.188 253.171 229.648 246.297C236.119 240.334 238.827 234.588 239.243 225.938L239.558 219.382L235.942 215.166C222.846 199.896 40.85 0 40.044 0C39.8719 0 44.1813 5.40178 49.6202 12.0031ZM135.412 409.18C138.373 403.937 136.8 397.195 131.847 393.902C127.167 390.79 119.897 392.256 119.897 396.311C119.897 397.548 120.582 398.449 122.124 399.243C124.72 400.579 124.909 402.081 122.866 405.152C120.797 408.262 120.964 410.996 123.337 412.854C127.162 415.849 132.576 414.202 135.412 409.18Z" fill="#FF007A"/>
<path fill-rule="evenodd" clip-rule="evenodd" d="M248.552 262.244C241.862 264.299 235.358 271.39 233.344 278.826C232.116 283.362 232.813 291.319 234.653 293.776C237.625 297.745 240.499 298.791 248.282 298.736C263.518 298.63 276.764 292.095 278.304 283.925C279.567 277.229 273.749 267.948 265.736 263.874C261.601 261.772 252.807 260.938 248.552 262.244ZM266.364 276.172C268.714 272.834 267.686 269.225 263.69 266.785C256.08 262.138 244.571 265.983 244.571 273.173C244.571 276.752 250.572 280.656 256.074 280.656C259.735 280.656 264.746 278.473 266.364 276.172Z" fill="#FF007A"/>
</svg>
